assets/svg/icon_2fa_phoneconfirm.svg

<svg width="36" height="36" viewBox="0 0 36 36" fill="none" xmlns="http://www.w3.org/2000/svg">
<path fill-rule="evenodd" clip-rule="evenodd" d="M8 15.6049V20.4073C8 24.9351 8 27.199 9.46447 28.6056C10.5966 29.6931 12.2622 29.9398 15.138 29.9958C15.4574 30.002 15.617 30.0051 15.7564 29.9771C16.2277 29.8822 16.6097 29.5226 16.718 29.072C16.75 28.9388 16.75 28.7804 16.75 28.4636V28.4636C16.75 26.554 16.75 25.5992 16.9373 24.8093C17.5777 22.1091 19.773 20.0006 22.5842 19.3855C23.4066 19.2056 24.4018 19.2056 26.3922 19.2056H26.3923C26.7247 19.2056 26.8908 19.2056 27.0282 19.1755C27.4963 19.0729 27.8618 18.7218 27.9687 18.2722C28 18.1403 28 17.9808 28 17.662V15.6049C28 11.0771 28 8.81321 26.5355 7.4066C25.0711 6 22.714 6 18 6C13.286 6 10.9289 6 9.46447 7.4066C8 8.81321 8 11.0771 8 15.6049ZM14 8.5C13.7239 8.5 13.5 8.72386 13.5 9C13.5 9.27614 13.7239 9.5 14 9.5H22C22.2761 9.5 22.5 9.27614 22.5 9C22.5 8.72386 22.2761 8.5 22 8.5H14Z" fill="white"/>
<path fill-rule="evenodd" clip-rule="evenodd" d="M23.803 22.0404C23.8652 22.0138 23.9323 22 24 22C24.0677 22 24.1348 22.0138 24.197 22.0404L27.394 23.4109C27.5739 23.4881 27.7272 23.6163 27.835 23.7798C27.9427 23.9432 28.0001 24.1347 28 24.3304V27.7604C27.9999 28.3774 27.8368 28.9834 27.5271 29.517C27.2174 30.0506 26.7722 30.4928 26.2365 30.7989L24.248 31.9349C24.1725 31.9781 24.087 32.0008 24 32.0008C23.913 32.0008 23.8275 31.9781 23.752 31.9349L21.7635 30.7989C21.2277 30.4928 20.7823 30.0503 20.4726 29.5166C20.1629 28.9828 19.9999 28.3766 20 27.7594V24.3304C20 24.1348 20.0574 23.9434 20.1652 23.7801C20.2729 23.6167 20.4262 23.4885 20.606 23.4114L23.803 22.0404ZM25.8535 26.3539C25.9446 26.2596 25.995 26.1333 25.9938 26.0022C25.9927 25.8711 25.9401 25.7457 25.8474 25.653C25.7547 25.5603 25.6293 25.5077 25.4982 25.5066C25.3671 25.5055 25.2408 25.5559 25.1465 25.6469L23.5 27.2934L22.8535 26.6469C22.7592 26.5559 22.6329 26.5055 22.5018 26.5066C22.3707 26.5077 22.2453 26.5603 22.1526 26.653C22.0599 26.7457 22.0073 26.8711 22.0062 27.0022C22.005 27.1333 22.0554 27.2596 22.1465 27.3539L23.1465 28.3539C23.2403 28.4477 23.3674 28.5003 23.5 28.5003C23.6326 28.5003 23.7597 28.4477 23.8535 28.3539L25.8535 26.3539Z" fill="white"/>
</svg>

<svg xmlns="http://www.w3.org/2000/svg" width="36" height="36" fill="none"><path fill="#fff" fill-rule="evenodd" d="M8 15.605v4.802c0 4.528 0 6.792 1.464 8.199 1.133 1.087 2.798 1.334 5.674 1.39.32.006.479.01.618-.019a1.24 1.24 0 0 0 .962-.905c.032-.133.032-.292.032-.608 0-1.91 0-2.865.187-3.655.64-2.7 2.836-4.808 5.647-5.424.823-.18 1.818-.18 3.808-.18.333 0 .499 0 .636-.03.468-.102.834-.453.94-.903.032-.132.032-.291.032-.61v-2.057c0-4.528 0-6.792-1.465-8.198C25.072 6 22.714 6 18 6s-7.071 0-8.536 1.407C8 8.813 8 11.077 8 15.605M14 8.5a.5.5 0 0 0 0 1h8a.5.5 0 0 0 0-1z" clip-rule="evenodd"/><path fill="#fff" fill-rule="evenodd" d="M23.803 22.04a.5.5 0 0 1 .394 0l3.197 1.37a1 1 0 0 1 .606.92v3.43a3.5 3.5 0 0 1-1.764 3.039l-1.988 1.136a.5.5 0 0 1-.496 0l-1.988-1.136A3.5 3.5 0 0 1 20 27.759V24.33a1 1 0 0 1 .606-.919zm2.05 4.314a.5.5 0 0 0-.707-.707L23.5 27.293l-.646-.646a.5.5 0 0 0-.707.707l1 1a.5.5 0 0 0 .707 0z" clip-rule="evenodd"/></svg>
